X: 640
T: Walter Bulwer’s Polka No 2
B: good tune book
B: tunes
M:2/4
R: polka
Q: 1/4=100
K:Dmajor
V:1 
|:B/c/|d/c/B gf|eA A>B|c/B/A fe|ed B>c|
 d/c/B gf|eA A>G|F/G/A/B/ c/d/e/f/|g2- g:|
 [K: DMaj] |:f/g/|af/g/ af/g/|a/g/f e2|ea g/f/e|
d/c/d/e/ f/e/f/g/| af/g/ af/g/|a/g/f e2|ea g/f/e|d2- d:|
% abcbook-tune_id 63dce8ed5aeef557b470cd6a
% abcbook-tune_composer_id 
% abcbook-link-0 https://www.youtube.com/watch?v=g3thYiEW-jE
% abcbook-link-end-at-0 115
% abcbook-boost 0
% abcbook-difficulty 0
% abcbook-tags good tune book
% abcbook-tablature 
% abcbook-transpose 
% abcbook-tuning 
% abcbook-lastupdated 1675482191436
% abcbook-soundfonts 
% abcbook-repeats 1


